symbols/be/PVO-{5}.svg

<?xml version="1.0" encoding="UTF-8" standalone="no"?>
<!-- Initially created with Inkscape, optimized by hand -->

<svg
   version="1.1"
   width="20"
   height="14.096813"
   id="svg1"
   xmlns="http://www.w3.org/2000/svg"
   xmlns:svg="http://www.w3.org/2000/svg">
  <defs
     id="defs1" />
  <rect
     x="0"
     y="0"
     width="20"
     height="14.096812"
     style="fill:#ffffff;stroke:none;stroke-width:0.0590319"
     id="Fond" />
  <circle
     cx="10"
     cy="7.0484047"
     r="5.8441563"
     style="fill:none;stroke:#000000;stroke-width:0.590319"
     id="circle1" />
  <path
     d="m 9.5519964,8.8244126 v -3.552012 c 0,-0.981336 -0.789336,-1.781339 -1.770673,-1.781339 -0.981336,0 -1.781339,0.800003 -1.781339,1.781339 v 3.552012 c 0,0.981336 0.800003,1.7813384 1.781339,1.7813384 0.981337,0 1.770673,-0.8000024 1.770673,-1.7813384 z m -0.704003,0 c 0,0.597335 -0.480001,1.06667 -1.06667,1.06667 -0.597335,0 -1.06667,-0.469335 -1.06667,-1.06667 v -3.552012 c 0,-0.586668 0.469335,-1.06667 1.06667,-1.06667 0.586669,0 1.06667,0.480002 1.06667,1.06667 z m 5.1520136,-4.970683 c 0,-0.202667 -0.16,-0.362668 -0.352001,-0.362668 h -2.848009 c -0.096,0 -0.170667,0.02133 -0.234667,0.08533 -0.08533,0.08533 -0.117334,0.16 -0.117334,0.277334 v 2.837342 c 0,0.117334 0.032,0.192001 0.117334,0.277335 0.064,0.064 0.138667,0.08533 0.234667,0.08533 h 1.408005 c 0.298667,0 0.501335,0.064 0.725335,0.266668 0.245334,0.224 0.341335,0.458668 0.341335,0.800002 v 0.704003 c 0,0.309334 -0.064,0.512001 -0.277334,0.746669 -0.181334,0.192 -0.458669,0.320001 -0.789336,0.320001 h -1.429338 c -0.192001,0 -0.352001,0.1706674 -0.352001,0.3626674 0,0.192001 0.16,0.352001 0.352001,0.352001 h 1.429338 c 0.554668,0 1.045336,-0.224 1.333337,-0.565335 0.309335,-0.3413344 0.437335,-0.7040024 0.437335,-1.2160034 v -0.704003 c 0,-0.597335 -0.266667,-1.109337 -0.618669,-1.397337 -0.298667,-0.245335 -0.842669,-0.384002 -1.152003,-0.384002 h -1.045337 v -2.13334 h 2.485341 c 0.192001,0 0.352001,-0.138667 0.352001,-0.352001 z"
     id="text1"
     style="font-size:10.6667px;font-family:Isonorm;-inkscape-font-specification:'Isonorm, Normal';fill-rule:evenodd;stroke-width:0.0944511"
     aria-label="05" />
</svg>

<?xml version="1.0" encoding="UTF-8"?>
<svg xmlns="http://www.w3.org/2000/svg" xmlns:xlink="http://www.w3.org/1999/xlink" width="20" height="14.096813" viewBox="0 0 20 14.096813">
<path fill-rule="nonzero" fill="rgb(100%, 100%, 100%)" fill-opacity="1" d="M 0 0 L 20 0 L 20 14.097656 L 0 14.097656 Z M 0 0 "/>
<path fill="none" stroke-width="0.590319" stroke-linecap="butt" stroke-linejoin="miter" stroke="rgb(0%, 0%, 0%)" stroke-opacity="1" stroke-miterlimit="4" d="M 15.84375 7.046875 C 15.84375 10.277344 13.226562 12.890625 10 12.890625 C 6.773438 12.890625 4.15625 10.277344 4.15625 7.046875 C 4.15625 3.820312 6.773438 1.203125 10 1.203125 C 13.226562 1.203125 15.84375 3.820312 15.84375 7.046875 Z M 15.84375 7.046875 "/>
<path fill-rule="evenodd" fill="rgb(0%, 0%, 0%)" fill-opacity="1" d="M 9.550781 8.824219 L 9.550781 5.273438 C 9.550781 4.292969 8.761719 3.492188 7.78125 3.492188 C 6.800781 3.492188 6 4.292969 6 5.273438 L 6 8.824219 C 6 9.804688 6.800781 10.605469 7.78125 10.605469 C 8.761719 10.605469 9.550781 9.804688 9.550781 8.824219 Z M 8.847656 8.824219 C 8.847656 9.421875 8.367188 9.890625 7.78125 9.890625 C 7.183594 9.890625 6.714844 9.421875 6.714844 8.824219 L 6.714844 5.273438 C 6.714844 4.6875 7.183594 4.207031 7.78125 4.207031 C 8.367188 4.207031 8.847656 4.6875 8.847656 5.273438 Z M 14 3.855469 C 14 3.652344 13.839844 3.492188 13.648438 3.492188 L 10.800781 3.492188 C 10.703125 3.492188 10.628906 3.511719 10.566406 3.578125 C 10.480469 3.660156 10.449219 3.738281 10.449219 3.855469 L 10.449219 6.691406 C 10.449219 6.808594 10.480469 6.882812 10.566406 6.96875 C 10.628906 7.03125 10.703125 7.054688 10.800781 7.054688 L 12.207031 7.054688 C 12.507812 7.054688 12.710938 7.117188 12.933594 7.320312 C 13.179688 7.542969 13.273438 7.777344 13.273438 8.121094 L 13.273438 8.824219 C 13.273438 9.132812 13.210938 9.335938 12.996094 9.570312 C 12.816406 9.761719 12.539062 9.890625 12.207031 9.890625 L 10.777344 9.890625 C 10.585938 9.890625 10.425781 10.0625 10.425781 10.253906 C 10.425781 10.445312 10.585938 10.605469 10.777344 10.605469 L 12.207031 10.605469 C 12.761719 10.605469 13.253906 10.382812 13.542969 10.039062 C 13.851562 9.699219 13.980469 9.335938 13.980469 8.824219 L 13.980469 8.121094 C 13.980469 7.523438 13.710938 7.011719 13.359375 6.722656 C 13.0625 6.476562 12.515625 6.339844 12.207031 6.339844 L 11.164062 6.339844 L 11.164062 4.207031 L 13.648438 4.207031 C 13.839844 4.207031 14 4.066406 14 3.855469 Z M 14 3.855469 "/>
</svg>
